X: 43211
T: With A Love That's True
R: waltz
M: 3/4
K: Gmajor
e2|e2 dB d2|de B2 BA/G/|A2 AG/A/ B2|BD E2 ED/E/| G2 GA/F/ G2|G4 d2|e4 ge|d2 dB/A/ B2|BG/A/ B2 BB/G/| A2 AG/A/ B2|BD E2 Ee/f/||
g2 gf e2|ee/d/ dg gf|f4 fg|e2 ed dB|
BA/G/ g4|g4 e2|ed d4|eB BA/G/ A2|
A2 AG/A/ B2|BD E4|ED/E/ G2 GA/F/| G4 e2|e2 ee/d/ Bd d2|de BA/G/ A2|AG/A/ BD E2| ED/E/ G2 GA/F/|G4 Gd|e4 eg|g2 ge dB/A/|B2 BG/A/|
B2 BG A2|AG/A/ B2 BD E2|E4 Ee/f/|gg/e/ e2 ee/d/| d2 dg gf|f4 fg|e2 ed dB|
BA/G/ g4|g4 e2|ed d4|eB BA/G/ A2| A2 AG/A/ B2|BD E4 ED/E/|G2 GA/F/ G2|G6||

